common/src/main/resources/glyphs/plugins/resharper/PsiSymbols/Public.svg

<svg xmlns="http://www.w3.org/2000/svg" width="16" height="16" fill="#AED581" data-big="true" viewBox="-6 -6 36 36"><path d="M18 1c-2.76 0-5 2.24-5 5v2H4a2 2 0 0 0-2 2v10a2 2 0 0 0 2 2h12c1.11 0 2-.89 2-2V10a2 2 0 0 0-2-2h-1V6c0-1.66 1.34-3 3-3s3 1.34 3 3v2h2V6c0-2.76-2.24-5-5-5m-8 12a2 2 0 0 1 2 2c0 1.11-.89 2-2 2a2 2 0 1 1 0-4"/></svg>

<!--
  - The MIT License (MIT)
  -
  - Copyright (c) 2015-2024 Elior "Mallowigi" Boukhobza
  -
  - Permission is hereby granted, free of charge, to any person obtaining a copy
  - of this software and associated documentation files (the "Software"), to deal
  - in the Software without restriction, including without limitation the rights
  - to use, copy, modify, merge, publish, distribute, sublicense, and/or sell
  - copies of the Software, and to permit persons to whom the Software is
  - furnished to do so, subject to the following conditions:
  -
  - The above copyright notice and this permission notice shall be included in all
  - copies or substantial portions of the Software.
  -
  - THE SOFTWARE IS PROVIDED "AS IS", WITHOUT WARRANTY OF ANY KIND, EXPRESS OR
  - IMPLIED, INCLUDING BUT NOT LIMITED TO THE WARRANTIES OF MERCHANTABILITY,
  - FITNESS FOR A PARTICULAR PURPOSE AND NONINFRINGEMENT. IN NO EVENT SHALL THE
  - AUTHORS OR COPYRIGHT HOLDERS BE LIABLE FOR ANY CLAIM, DAMAGES OR OTHER
  - LIABILITY, WHETHER IN AN ACTION OF CONTRACT, TORT OR OTHERWISE, ARISING FROM,
  - OUT OF OR IN CONNECTION WITH THE SOFTWARE OR THE USE OR OTHER DEALINGS IN THE
  - SOFTWARE.
  -->


<svg data-big="true" xmlns="http://www.w3.org/2000/svg" version="1.1" width="16px" height="16px" viewBox="-6 -6 36 36"
     fill="#AED581">
  <path fill="#AED581"
        d="M18 1C15.24 1 13 3.24 13 6V8H4C2.9 8 2 8.89 2 10V20C2 21.11 2.9 22 4 22H16C17.11 22 18 21.11 18 20V10C18 8.9 17.11 8 16 8H15V6C15 4.34 16.34 3 18 3C19.66 3 21 4.34 21 6V8H23V6C23 3.24 20.76 1 18 1M10 13C11.1 13 12 13.89 12 15C12 16.11 11.11 17 10 17C8.9 17 8 16.11 8 15C8 13.9 8.9 13 10 13Z"/>
</svg>
